X: 1633
T: Sabahın Seher Vaktinde
C: (Anonim)
O: Turkey
F: http://compmusic.upf.edu/node/140
N: huseyni--turku--sofyan--sabahin_seher--
N: makam= huseyni
N: form= turku
N: usul= sofyan = 4/4
M: 4/4
L: 1/16
K: C _2/4B ^3/4f  
Q: 1/4=54
%%MIDI tuningsystem comma53
z2gg gff2 fee2 edd2  | efgf gff2 fee2 edd2  | 
w:  Sa ba hın  *  se her  *  vak tin *  de    |  SAZ  | 
z2gg gff2 fee2 edd2  | efgf gff2 fee2 edd2  | 
w:  A li yi  gör *  düm_ A *  li yi    |  SAZ  | 
z2fg gff2 feee eddc  | z2de ed2d dc2B cBBA  | 
w:  Yü zü mü  di *  zi ne  *  sür *  düm    |  A li yi  gör *  düm_ A *  li yi    | 
z2cd dc2B cB2A BAA2  | z2Ac cBB2 BA2A A2A2  | 
w:  A li yi  gör *  düm_ A *  li yi    |  A li yi  gör *  düm_ A *  li yi    | 
z2de ed2d dc2B cBBA  | z2cd dc2B cB2A BAA2  | 
w:  A li yi  gör *  düm_ A *  li yi    |  A li yi  gör *  düm_ A *  li yi    | 
z2Ac cBB2 BA2A A2A2  | |


